dist/svgs/team-camera.svg

<svg xmlns="http://www.w3.org/2000/svg" viewBox="0 0 512 512"><path d="M107 63H21V20h86v43zm384 21q9 0 15 6t6 16v362q0 10-6 16t-15 6H21q-9 0-15-6t-6-16V106q0-10 6-16t15-6h118l36-55q3-3 7.5-6t9.5-3h128q5 0 9.5 3t7.5 6l36 55h118zM256 383q22 0 42-8.5t34-22.5 22.5-33.5T363 276q0-22-8.5-41.5T332 201t-34-22.5-42-8.5q-23 0-42.5 8.5T180 201t-22.5 33.5T149 276q0 23 8.5 42.5T180 352t33.5 22.5T256 383z"/></svg>

<?xml version="1.0" encoding="UTF-8" standalone="no"?><svg   xmlns:svg="http://www.w3.org/2000/svg"   xmlns="http://www.w3.org/2000/svg"   version="1.1"   width="512"   height="512"   viewBox="0 0 512 512">  <path     d="M107 63H21V20H107V63zM491 84Q500 84 506 90T512 106V468Q512 478 506 484T491 490H21Q12 490 6 484T0 468V106Q0 96 6 90T21 84H139L175 29Q178 26 182.5 23T192 20H320Q325 20 329.5 23T337 29L373 84H491zM256 383Q278 383 298 374.5T332 352T354.5 318.5T363 276Q363 254 354.5 234.5T332 201T298 178.5T256 170Q233 170 213.5 178.5T180 201T157.5 234.5T149 276Q149 299 157.5 318.5T180 352T213.5 374.5T256 383z"     id="team-camera" /></svg>
